icon-svg/play-bar-three.svg

<svg xmlns="http://www.w3.org/2000/svg" fill="#44739e" viewBox="0 0 24 24"><path d="m17.855 17.325-9.193-3.646a3.99 3.99 0 0 0-1.585-.317 2.69 2.69 0 0 0-1.109.159 1.145 1.145 0 0 0-.634.951v2.536c0 .158.158.475.634.792l9.51 3.8a2.98 2.98 0 0 0 1.268.317 1.708 1.708 0 0 0 1.268-.317.742.742 0 0 0 .634-.792v-2.532a1.277 1.277 0 0 0-.793-.951m0 1.268a2.793 2.793 0 0 1-2.536-.159c-.475-.158-9.193-3.645-9.193-3.645s-.792-.317.159-.634c1.109-.476 1.9 0 2.853.317.634.158 8.4 3.328 8.4 3.328s1.268.317.317.793M5.946 12.064l9.51 3.8a2.98 2.98 0 0 0 1.268.317 1.708 1.708 0 0 0 1.268-.317.742.742 0 0 0 .634-.792V12.54a1.277 1.277 0 0 0-.793-.951L8.64 7.943a3.99 3.99 0 0 0-1.585-.317 2.69 2.69 0 0 0-1.109.159 1.145 1.145 0 0 0-.634.951v2.536c0 .158.158.475.634.792m.317-3.645c1.109-.476 1.9 0 2.853.317.634.158 8.4 3.328 8.4 3.328s1.268.317.317.793A2.793 2.793 0 0 1 15.3 12.7c-.478-.16-9.2-3.647-9.2-3.647s-.788-.317.163-.634m-.317-2.061 9.51 3.8a3.08 3.08 0 0 0 1.268.159 3.08 3.08 0 0 0 1.268-.159c.634-.317.634-.634.634-.792V6.834c0-.317-.159-.634-.793-.951L8.64 2.237a4.43 4.43 0 0 0-1.585-.158 2.7 2.7 0 0 0-1.109.158.809.809 0 0 0-.634.793v2.536c0 .158.158.475.634.792m.317-3.645c1.109-.476 1.9 0 2.853.317.634.317 8.4 3.328 8.4 3.328s1.268.476.317.793a2.793 2.793 0 0 1-2.533-.159c-.478-.158-9.2-3.645-9.2-3.645s-.788-.317.163-.634"/></svg>

<?xml version="1.0" encoding="UTF-8"?>
<svg width="24px" height="24px" viewBox="0 0 24 24" version="1.1" fill="#44739e" xmlns="http://www.w3.org/2000/svg" xmlns:xlink="http://www.w3.org/1999/xlink">
            <path d="M 17.855,17.325 8.662,13.679 A 3.986,3.986 0 0 0 7.077,13.362 2.687,2.687 0 0 0 5.968,13.521 1.145,1.145 0 0 0 5.334,14.472 v 2.536 c 0,0.158 0.158,0.475 0.634,0.792 l 9.51,3.8 a 2.977,2.977 0 0 0 1.268,0.317 1.708,1.708 0 0 0 1.268,-0.317 0.742,0.742 0 0 0 0.634,-0.792 v -2.532 a 1.277,1.277 0 0 0 -0.793,-0.951 z m 0,1.268 a 2.793,2.793 0 0 1 -2.536,-0.159 c -0.475,-0.158 -9.193,-3.645 -9.193,-3.645 0,0 -0.792,-0.317 0.159,-0.634 1.109,-0.476 1.9,0 2.853,0.317 0.634,0.158 8.4,3.328 8.4,3.328 0,0 1.268,0.317 0.317,0.793 z m -11.909,-6.529 9.51,3.8 a 2.977,2.977 0 0 0 1.268,0.317 1.708,1.708 0 0 0 1.268,-0.317 0.742,0.742 0 0 0 0.634,-0.792 V 12.54 A 1.277,1.277 0 0 0 17.833,11.589 L 8.64,7.943 A 3.986,3.986 0 0 0 7.055,7.626 2.687,2.687 0 0 0 5.946,7.785 1.145,1.145 0 0 0 5.312,8.736 v 2.536 c 0,0.158 0.158,0.475 0.634,0.792 z M 6.263,8.419 c 1.109,-0.476 1.9,0 2.853,0.317 0.634,0.158 8.4,3.328 8.4,3.328 0,0 1.268,0.317 0.317,0.793 A 2.793,2.793 0 0 1 15.3,12.7 C 14.822,12.54 6.1,9.053 6.1,9.053 c 0,0 -0.788,-0.317 0.163,-0.634 z m -0.317,-2.061 9.51,3.8 a 3.08,3.08 0 0 0 1.268,0.159 3.082,3.082 0 0 0 1.268,-0.159 C 18.626,9.841 18.626,9.524 18.626,9.366 V 6.834 C 18.626,6.517 18.467,6.2 17.833,5.883 L 8.64,2.237 A 4.43,4.43 0 0 0 7.055,2.079 2.7,2.7 0 0 0 5.946,2.237 0.809,0.809 0 0 0 5.312,3.03 v 2.536 c 0,0.158 0.158,0.475 0.634,0.792 z M 6.263,2.713 c 1.109,-0.476 1.9,0 2.853,0.317 0.634,0.317 8.4,3.328 8.4,3.328 0,0 1.268,0.476 0.317,0.793 A 2.793,2.793 0 0 1 15.3,6.992 C 14.822,6.834 6.1,3.347 6.1,3.347 c 0,0 -0.788,-0.317 0.163,-0.634 z"/>

</svg>
